X:1
T:Lowell (Nichol), 87.87 D
T:Lowell (Nichol), 87.87 D
T:Henry Ernest Nichol, 1905
T:Public Domain Courtesy of the Cyber Hymnal™
C:Henry Ernest Nichol, 1905
Z:Public Domain
Z:Courtesy of the Cyber Hymnal™
%%score ( 1 2 ) ( 3 4 )
L:1/8
Q:1/4=112
M:4/4
K:A
V:1 treble 
V:2 treble 
V:3 bass 
V:4 bass 
V:1
 A3 E C2 E2 | A2 [GB]2 [Ac]2 [Gd]2 | [Ae]3 A [GB]2 [Ac]2 | [EB]2 [^DA]2 [EG]4 | A3 E C2 E2 | %5
 A2 [FB]2 [^Ec]2 G2 | [FA]3 [FB] [Fc]2 ([GB][FA]) | [EG]2 [^DF]2 E4 | E2 E2 [EA]3 [EG] | %9
 F2 [EF]2 [DB]2 [^DA]2 | [EG]2 [EG]2 [^Ec]3 [EB] | [FA]2 [Fd]2 [GB]4 | A3 E C2 E2 | %13
 A2 [GB]2 [Ac]2 [Gd]2 | [Ae]3 [EA] [EG]2 [DF]2 | [CE]2 [DB]2 [CA]4 |] %16
V:2
 A3 E C2 E2 | A2 x6 | x3 A x4 | x8 | A3 E C2 E2 | A2 x2 G2 x2 | x8 | x4 E4 | E2 E2 x4 | F2 x6 | %10
 x8 | x8 | A3 E C2 E2 | A2 x6 | x8 | x8 |] %16
V:3
 A,3 E, C,2 E,2 | A,2 [E,E]2 [A,E]2 [B,E]2 | [CE]3 [CE] [B,E]2 [A,E]2 | [G,B,]2 [F,B,]2 [E,B,]4 | %4
 A,3 E, C,2 E,2 | A,2 [D,F,]2 [C,G,]2 [^E,C]2 | [F,C]3 [G,C] [A,C]2 [A,,C]2 | %7
 [B,,B,]2 [B,,A,]2 [E,G,]4 | [E,G,]2 [D,G,]2 [C,A,]3 [C,A,] | [D,A,]2 [C,^A,]2 [B,,B,]2 [B,,B,]2 | %10
 [E,B,]2 [D,B,]2 [C,C]3 [C,C] | [F,C]2 [B,,D]2 [E,E]4 | A,3 E, C,2 E,2 | A,2 [E,E]2 [A,E]2 [B,E]2 | %14
 [CE]3 [C,E] [D,A,]2 [B,,A,]2 | [E,A,]2 [E,G,]2 [A,,A,]4 |] %16
V:4
 A,3 E, C,2 E,2 | A,2 x6 | x8 | x8 | A,3 E, C,2 E,2 | A,2 x6 | x8 | x8 | x8 | x8 | x8 | x8 | %12
 A,3 E, C,2 E,2 | A,2 x6 | x8 | x8 |] %16

